X:31
T:Maghera Mountains
R:reel
C:Martin Hayes
D:i.The Kane Sisters,ii.Mary McNamara - Music from East Clare
S:Clare FM
Z:psc -  http://www.cranfordpub.com
L:1/8
Q:333
M:C|
K:Gdor
d2 cA BAGF|DGG^F GABc|dBcA BAGB|AF ~F2 CFAc|
dBcA BAGF|DGG^F GBAG|FGAc fdcA|[1B2 AB GABc:|[2B2 AB GBAG||
|:F2 Ac f2 ef|g2 ag ({a}g)fdf|ec ~c2 acgc|ecgc acgc|
BGGF G3 B|AFFE F3 A|B2 ge fdcA|[1B2 AB GBAG:|[2B2 AB GABc|]
